assets/Card file box/Flat/card_file_box_flat.svg

<svg width="32" height="32" viewBox="0 0 32 32" fill="none" xmlns="http://www.w3.org/2000/svg">
<path d="M27.8774 29.9491H4.12258C2.95017 29.9491 2 28.9989 2 27.8265L1.99998 15.7788C1.99998 13.6918 3.69181 12 5.77881 12H26.2212C28.3082 12 30 13.6918 30 15.7788L30 27.8265C30 28.9989 29.0492 29.9491 27.8774 29.9491Z" fill="#433B6B"/>
<path d="M4.12258 5H27.8774C29.0492 5 30 5.95017 30 7.12258V16.3934C30 17.5658 29.0498 18.516 27.8774 18.516H4.12258C2.95017 18.516 2 17.5658 2 16.3934V7.12258C2 5.95017 2.95017 5 4.12258 5Z" fill="#8D65C5"/>
<path d="M13.4995 21H18.5005C19.3277 21 20 21.6731 20 22.5V25.5C20 26.3269 19.3271 27 18.5005 27H13.4995C12.6729 27 12 26.3269 12 25.5V22.5C12 21.6731 12.6729 21 13.4995 21Z" fill="#8D65C5"/>
<path d="M27.8774 6.51849C28.2214 6.51849 28.5017 6.7988 28.5017 7.14278V16.3757C28.5017 16.7197 28.2214 17 27.8774 17H27L16 15.5L5 17H4.12258C3.7786 17 3.49829 16.7197 3.49829 16.3757V7.14278C3.49829 6.7988 3.7786 6.51849 4.12258 6.51849H27.8774Z" fill="#321B41"/>
<path d="M18.5002 26H13.4998C13.2237 26 13 25.7763 13 25.5V22.5C13 22.2237 13.2237 22 13.4998 22H18.5002C18.7763 22 19 22.2237 19 22.5V25.5C19 25.7763 18.7763 26 18.5002 26Z" fill="#F4F4F4"/>
<path d="M22.9977 3H19.0023C18.4485 3 18 3.45388 18 4.01426V5L21 6L24 5V4.01426C24 3.45388 23.5515 3 22.9977 3Z" fill="#00D26A"/>
<path d="M27 12V7.17802C27 5.97499 26.0488 5 24.875 5H7.125C5.95125 5 5 5.97499 5 7.17802V11.984L27 12Z" fill="#FFB02E"/>
<path d="M17.9977 7H14.0023C13.4485 7 13 7.45388 13 8.01426V9L16 10L19 9V8.01426C19 7.45388 18.5515 7 17.9977 7Z" fill="#00A6ED"/>
<path d="M27 15.5V11.1824C27 9.97693 26.0488 9 24.875 9H7.125C5.95125 9 5 9.97693 5 11.1824V15.484L27 15.5Z" fill="#F9C23C"/>
<path d="M12.9977 11H9.0023C8.44853 11 8 11.4539 8 12.0143V13L11 14L14 13V12.0143C14 11.4539 13.5508 11 12.9977 11Z" fill="#F8312F"/>
<path d="M27 17V15.1226C27 13.9502 26.0724 13 24.9 13H7.24024C5.99915 13 4.9928 14.0064 4.9928 15.2474L5 17H27Z" fill="#FCD53F"/>
</svg>

<svg xmlns="http://www.w3.org/2000/svg" width="32" height="32" fill="none"><path fill="#433B6B" d="M27.877 29.95H4.123A2.122 2.122 0 0 1 2 27.826V15.778A3.779 3.779 0 0 1 5.779 12H26.22A3.779 3.779 0 0 1 30 15.779v12.047c0 1.173-.95 2.123-2.123 2.123Z"/><path fill="#8D65C5" d="M4.123 5h23.754C29.05 5 30 5.95 30 7.123v9.27c0 1.173-.95 2.123-2.123 2.123H4.123A2.122 2.122 0 0 1 2 16.393v-9.27C2 5.95 2.95 5 4.123 5ZM13.5 21h5c.828 0 1.5.673 1.5 1.5v3c0 .827-.673 1.5-1.5 1.5h-5c-.827 0-1.5-.673-1.5-1.5v-3c0-.827.673-1.5 1.5-1.5Z"/><path fill="#321B41" d="M27.877 6.518c.344 0 .625.28.625.625v9.233c0 .344-.28.624-.625.624H27l-11-1.5L5 17h-.877a.625.625 0 0 1-.625-.624V7.143c0-.344.28-.625.625-.625h23.754Z"/><path fill="#F4F4F4" d="M18.5 26h-5a.5.5 0 0 1-.5-.5v-3a.5.5 0 0 1 .5-.5h5a.5.5 0 0 1 .5.5v3a.5.5 0 0 1-.5.5Z"/><path fill="#00D26A" d="M22.998 3h-3.996C18.45 3 18 3.454 18 4.014V5l3 1 3-1v-.986C24 3.454 23.552 3 22.998 3Z"/><path fill="#FFB02E" d="M27 12V7.178C27 5.975 26.049 5 24.875 5H7.125C5.951 5 5 5.975 5 7.178v4.806L27 12Z"/><path fill="#00A6ED" d="M17.998 7h-3.996C13.448 7 13 7.454 13 8.014V9l3 1 3-1v-.986C19 7.454 18.552 7 17.998 7Z"/><path fill="#F9C23C" d="M27 15.5v-4.318C27 9.977 26.049 9 24.875 9H7.125C5.951 9 5 9.977 5 11.182v4.302l22 .016Z"/><path fill="#F8312F" d="M12.998 11H9.002C8.45 11 8 11.454 8 12.014V13l3 1 3-1v-.986c0-.56-.45-1.014-1.002-1.014Z"/><path fill="#FCD53F" d="M27 17v-1.877A2.103 2.103 0 0 0 24.9 13H7.24a2.248 2.248 0 0 0-2.247 2.247L5 17h22Z"/></svg>
